!!!!SEGMENT: pl-wumfc--n53446--001-016_moniuszko-stanislaw--hrabina-no-13-piosnka-broni.krn
!!!cenid: 18xx:4103
!!!COM: Moniuszko, Stanisław
!!!COM-rismID: pe30008351
!!!CDT: 1819/05/05-1872/06/04
!!!CNT: Polish
!!!OPR: Hrabina
!!!OTL: No. 13. Piosnka Broni
!!!OMV: 016
!!!PDT:
!!!AGN: Secular; Opera
!!!YEC: Copyright 2022 Narodowy Instytut Fryderyka Chopina (https://polishscores.org)
!!!YEM: License CC-BY-4.0 (https://creativecommons.org/licenses/by/4.0)
!!!SMS-siglum: PL-Wumfc
!!!SMS-shelfmark: N53446
!!!SMS-shelfwork: 001-016 M
!!!SMS-variant:
!!!SMS-altvar:
!!!NIFC-rismSourceID: 1001165649
!!!NIFC-rismChildID: 1001165649
!!!NIFC-islandoraID: pl-wumfc:6884
!!!URL-pdf-islandora: https://repozytorium.nifc.pl/islandora/object/pl-wumfc%3A6884/datastream/PDF/view
!!!URL-scan: https://polish.musicsources.pl/pl/lokalizacje/galeria/druki-muzyczne/12579 @EN{Scan on Polish Music Sources Website} @PL{Skany w portalu Dziedzictwo Muzyki Polskiej w otwartym dostępie}
!!!IIIF:
!!!ONB-nifc:
!!!AIN: 1 piano
!!!key: B-
**kern	**kern	**text	**dynam
*part1	*part1	*	*
*staff2	*staff1	*	*
*I"[Piano.]	*I"[Piano.]	*	*
*>[A,B,B,C]	*>[A,B,B,C]	*	*
*>A	*>A	*	*
*Ipiano	*Ipiano	*	*
*ICklav	*ICklav	*	*
*clefF4	*clefG2	*	*
*k[b-e-]	*k[b-e-]	*	*
*B-:	*B-:	*	*
*M2/4	*M2/4	*	*
=1	=1	=1	=1
!!LO:TX:B:a:t=Allegretto.
!	!LO:TX:t=P:problem:cały tekst zapisany ponad pięciolinią	!	!
[2B- [2G\	[2d/	.	p
=2	=2	=2	=2
2B-] 2G\]	4.d/]	Szem-	.
.	(16d/LL	-rze	.
.	16e-/JJ)	.	.
=3	=3	=3	=3
*	*^	*	*
4B- 4G\	(>8d/L	4ryy	stru-	.
.	8g/	.	-myk	.
!	!	!	!	!LO:DY:a
4c 4G\	8f#X/	4d\	pod	<
.	8a/J	.	ja-	.
=4	=4	=4	=4	=4
4B- 4G\	8g/L	4d\	-wo-	.
.	8b-/	.	-rem	.
4c 4G\	8a/	4f#X 4e-\	po-	.
.	8cc/J	.	-ka-	.
=5	=5	=5	=5	=5
4B- 4G\	8b-/L	4d\	-my-	.
.	8g/	.	-kach	.
4c 4G\	8cc/	4e-\	wol-	.
.	8ee-/J	.	-no	.
*	*v	*v	*	*
=6	=6	=6	=6
*ped	*	*	*
8B-L 8G\	[>4dd;/)	ście-	[
16g>L 16d> 16B-'\	.	.	.
16g>JJ 16d> 16B-'\	.	.	.
*Xped	*	*	*
8g> 8d> 8B-\	16dd/LL]	-ka,	.
!	!LO:TX:i:b:t=rall.	!	!
.	16cc#X'>/	.	.
8r;	16ccn'>/	stoi	.
.	16b-'>/JJ	.	.
=7	=7	=7	=7
!	!LO:TX:i:a:t=a tempo	!	!
8F#X\L	8a/	dziew-	.
.	(8qb-/	.	.
8dJ 8c\	16a/LL	-czę	.
.	16g/JJ)	.	.
8D\L	8a'/L	prze-	.
8d\J	8b-'/J	-de	.
!!LO:LB:g=original
=8	=8	=8	=8
8G\L	(8.g/L	dwo-	.
8B-\	.	.	.
.	16d/Jk	-rem,	.
8B-\	8d/L)	i	.
8B-\J	8d'/J	łzy	.
=9	=9	=9	=9
*	*^	*	*
!	!LO:TX:i:a:t=rallent.	!	!	!
(4B- 4G\	8en/L	4c#X\	tłu-	.
.	(<24e/L	.	-mi	.
.	24f#X/	.	.	.
.	24e/J	.	.	.
8AL 8F#X\)	8d/)	8d\L	i	.
8AJ 8En\	8e/J	8c#\J	na-	.
=10	=10	=10	=10	=10
4A 4D\	8f#X/L	4d\	-rze-	.
.	8a/J	.	-ka.	.
4r	8r	4ryy	.	.
.	16d/LL	.	.	.
.	16e-X/JJ	.	.	.
=11	=11	=11	=11	=11
!	!LO:TX:i:b:t=ac-ce-le-ran-do:ext2=ud:dur=2h	!	!	!
4D 4GG/	8d/L	4B-\	.	.
.	8g/J	.	.	.
4E- 4GG/	8f#X/L	4c\	.	.
.	8a/J	.	.	.
=12	=12	=12	=12	=12
4D 4GG/	8g/L	4B-\	.	.
.	(8b-/J	.	.	.
4D 4GG/	8a#XL 8f/	4c\	.	.
.	8cc/J)	.	.	.
=13	=13	=13	=13	=13
*^	*	*	*	*
4G 4GG/	4ryy	(8b-/L	4d\	.	.
.	.	8g/)	.	.	.
8e-'/L	8G\L	8cc'/	8g\L	.	.
8c'/J	8G\J	8ee-'/J	8g\J	.	.
*v	*v	*	*	*	*
*	*v	*v	*	*
=14	=14	=14	=14
*	*	*	*^
!	!	!	!LO:HP:a	!
8B- 8G\	[4dd;\	.	>	.
16b->LL 16g> 16d>\	.	.	.	pp
16b->JJ 16g> 16d>\	.	.	.	.
8b-> 8g> 8d>\	16dd/LL]	.	.	.
!	!LO:TX:i:b:t=rallent.	!	!	!
.	16cc#X'>/	.	.	.
8r	16ccn'>/	.	.	.
.	16b-'>/JJ	.	]]	.
*	*	*	*v	*v
!!LO:LB:g=original
=15	=15	=15	=15
!	!LO:TX:i:a:t=a tempo	!	!
8F#X\L	8a'/L	.	.
.	8qb-/	.	.
8dJ 8c\	(16a/L	.	.
.	16g/JJ)	.	.
8D\L	(8a/L	.	.
8dJ 8c 8F#\	8b-/J)	.	.
=16	=16	=16	=16
8G\L	(8.g/L	.	.
8B-\J	.	.	.
.	16d/Jk	.	.
8B-L 8G\	8d/L)	.	.
8G\J	8dJ 8B-/	.	.
=17	=17	=17	=17
*	*^	*	*
!	!LO:TX:i:a:t=rallent.	!	!	!
(4G 4GG/	8en/L	4c#X 4B-\	.	.
*	*Xtuplet	*	*	*
!	!LO:TX:t=P:problem:błędne wyświetlanie łuku	!	!	!
.	(<24e/L	.	.	.
.	24f#X/	.	.	.
.	24e/J	.	.	.
8F#XL 8FF#X/	8d) 8A/	8ryy	.	.
8EnJ 8EEn/)	8eJ 8c# 8A/	8ryy	.	.
=18	=18	=18	=18	=18
4D 4DD/	8f#X/L	4d 4A\	.	.
.	8a/J	.	.	.
*	*v	*v	*	*
4r	4r	.	.
=19	=19	=19	=19
4r	4r	.	.
8dL 8B-\	8b-L 8g/	.	p <
8cJ 8A\	8ccJ 8g/	.	[[
=20	=20	=20	=20
*	*^	*	*
(4B- (4G\	(8ee-/L	4g\	.	.
.	16dd/L	.	.	.
.	16b-/JJ)	.	.	.
8dL 8B-\))	8g'/L	8ryy	.	.
8B-J 8G'\	8b-J 8g'/	8ryy	.	.
*	*v	*v	*	*
=21	=21	=21	=21
8c 8F#X\	(8a/L	.	.
8r	8d/J)	.	.
8fnL 8d'\	8ddL 8b-'\	.	.
8e-J 8c'\	8ee-J 8b-'\	.	.
!!LO:LB:g=original
=22	=22	=22	=22
*	*^	*	*
(4d (4B-\	(8gg/L	4b-\	.	>
.	16ff/L	.	.	.
.	16dd/JJ)	.	.	]
8fL 8d\))	8b-'>/L	8ryy	.	.
8dJ 8B-'\	8ddJ 8b-'>/	8ryy	.	.
*	*v	*v	*	*
=23	=23	=23	=23
4.c 4.F\	([4.cc;\	.	.
8r	32cc\LLL]	.	.
.	32b-\	.	.
.	32a\	.	.
.	32g\JJJ	.	.
=24	=24	=24	=24
2r;	8f/)	.	.
.	8r;	.	.
.	(>8a/L	.	p
.	8b-/J	.	.
=25	=25	=25	=25
*	*^	*	*
(2G 2C\	4cc/	2e-\	.	.
.	4cc/	.	.	.
=26	=26	=26	=26	=26
2A 2F\	4cc/	2f 2e-\	.	.
.	4cc/	.	.	.
=27	=27	=27	=27	=27
2B- 2BB-\	2dd/	2f 2d\	.	.
=28	=28	=28	=28	=28
2A 2D\	4cc/)	2f#X 2d\	.	.
.	(8a/L	.	.	.
.	8cc/J	.	.	.
=29	=29	=29	=29	=29
2G\	4b-/	2g 2d\	.	.
.	8a/L	.	.	.
.	8g/J	.	.	.
=30	=30	=30	=30	=30
2G 2C\	4.cc/	2e-\	.	.
.	8g/	.	.	.
=31	=31	=31	=31	=31
*^	*	*	*	*
4F/	[2FF\	4.b-/	4d\	.	.
4En/	.	.	4d-X\	.	.
.	.	16cc/LL	.	.	.
.	.	16b-/JJ	.	.	.
*v	*v	*	*	*	*
=32	=32	=32	=32	=32
8F 8FF/)]	8a/)	8c\	.	.
8r	8r;	8ryy	.	.
4r	8cc\L	8ryy	.	f
.	8dd\J	8ryy	.	.
*	*v	*v	*	*
!!LO:LB:g=original
=33	=33	=33	=33
8.r	8.ff\L	.	.
16f 16F\	16ffJk 16ee- 16cc 16a\	.	f
8.cL 8.C\	8.aaL 8.ff 8.ee- 8.cc\	.	.
16AJk 16AA\	16cccJk 16aa 16ff 16ee-\	.	.
=34	=34	=34	=34
8F 8FF/	8eee- 8ccc 8aa 8ff\	.	.
8r	16r	.	.
.	16ee-\	.	.
4r	8.cc\L	.	.
.	16a\Jk	.	.
=35	=35	=35	=35
2r	2g/	.	.
=36	=36	=36	=36
4r;	8f/	.	.
.	8r;	.	.
4r	8.d/L	.	.
.	16e-/Jk	.	.
=37	=37	=37	=37
8BB-\L	8f/L	.	.
8d 8B- 8F\	8b-/	.	.
8BB-\	8a/	.	.
8e-J 8A 8F\	8cc/J	.	.
=38	=38	=38	=38
8BB-\L	8b-\L	.	.
8dJ 8B- 8F\	8dd\J	.	<
8BB-\L	8cc'\L	.	.
8e-J 8A 8F\	(8ee-\J	.	.
=39	=39	=39	=39
8BB-\L	8dd\L)	.	.
8dJ 8B- 8F\	8b-'\	.	.
8BB-\L	8ee-'\	.	.
8e-J 8B- 8G\	8gg'\J	.	.
=40	=40	=40	=40
*ped	*	*	*
8BB-/	[4ff;\	.	sf
16dLL 16B- 16F\	.	.	.
16dJJ 16B- 16F\	.	.	.
*Xped	*	*	*
8f 8d 8B-\	16ff\LL]	.	>
!	!LO:TX:i:a:t=rallent.	!	!
.	16een'\	.	.
8r	16ee-X'\	.	.
.	16dd'\JJ	.	]
!!LO:PB:g=original
=41	=41	=41	=41
!	!LO:TX:i:a:t=a tempo	!	!
8F#X\L	8cc'\	.	.
.	8qdd/	.	.
8dJ 8c 8A\	(16cc\LL	.	.
.	16b-\JJ	.	.
8D\L	8cc\L)	.	.
8dJ 8A 8F#\	8dd'\J	.	.
=42	=42	=42	=42
8G\L	8.b-/L	.	.
8dJ 8B-\	.	.	.
.	16a/Jk	.	.
8D\L	8g/L	.	.
8dJ 8B-\	8g/J	.	.
=43	=43	=43	=43
(4c 4A 4D\	8f#X/L	.	.
.	8d'/J	.	.
4B- 4G 4D\	16g'/LL	.	.
.	16a'/	.	.
.	16b-'/	.	.
.	16cc'/JJ	.	.
=44	=44	=44	=44
*	*^	*	*
8AL 8D\	(8.dd/L	8f#X\L	.	.
8Bn 8G\	.	8fn\	.	.
.	32ee-/LL	.	.	.
.	32dd/JJJ	.	.	.
8G 8C\	8cc/L)	8en\	.	.
8AJ 8F\)	8f/J	8e-X\J	.	.
*	*v	*v	*	*
=45	=45	=45	=45
8BB-X\L	8fL 8d'/	.	p
8dJ 8B- 8F\	8b-/J	.	.
8BB-\L	8.a\L	.	.
8e-J 8A 8F\	.	.	.
.	(16cc\Jk	.	.
=46	=46	=46	=46
!	!	!	!LO:HP:b:t=cre-scen-do:ext2=ud
8BB-\L	8b-\L)	.	<
8dJ 8B- 8F\	(24dd\L	.	.
.	24ee-\	.	.
.	24dd\JJ	.	.
8BB-\L	8cc\L)	.	.
8cJ 8A 8F\	(8ee-\J	.	.
=47	=47	=47	=47
8BB-\L	8dd\L)	.	.
8dJ 8B- 8F\	(8b-\	.	.
8BB-\L	8ee-\)	.	.
8B-J 8G 8E-\	8gg\J	.	[[
!!LO:LB:g=original
=48	=48	=48	=48
*ped	*	*	*
8BB-/	[4ff;\	.	sf
16dLL 16B- 16F'\	.	.	.
16dJJ 16B- 16F'\	.	.	.
*Xped	*	*	*
8f 8d 8B-'\	16ff\LL]	.	.
.	16een'\	.	.
8r	16ee-X'\	.	.
.	16dd'\JJ	.	.
=49	=49	=49	=49
*	*^	*	*
8A 8D\	(8dd/L	8f#X\	.	p
8r	8cc/J	8r	.	.
8c 8A 8D\	8ee-;/L	8f#\	.	.
8r	16dd/L	8r	.	.
.	16cc/JJ	.	.	.
=50	=50	=50	=50	=50
8B- 8G\	8.b-/L	8g\	.	.
8r	.	8r	.	.
.	16a/Jk	.	.	.
8e- 8B- 8E-\	16g/LL	4ryy	.	.
.	16a/	.	.	.
8r	16b-/	.	.	.
.	16cc/JJ)	.	.	.
=51	=51	=51	=51	=51
4B- 4F\	(8.dd/L	4f\	.	.
.	32ee-/LL	.	.	.
.	32dd/JJJ	.	.	.
4A 4F\	8.cc/L)	4e-\	.	.
.	16f/Jk	.	.	.
*	*v	*v	*	*
=52!|:	=52!|:	=52!|:	=52!|:
*>B	*>B	*	*
!!LO:TX:B:a:t=Più allegro.
8BB- 8BBB-/	8b-L 8d/	.	.
8dL 8B- 8F 8D\	8b-/J	.	.
8d 8B- 8F 8D\	8.ff^\L	.	.
8dJ 8B- 8F 8D\	.	.	.
.	16dd\Jk	.	.
=53	=53	=53	=53
8dL 8B- 8F 8D\	16b-'/LL	.	.
.	16f'/	.	.
8dJ 8B- 8F 8D\	16b-'/	.	.
.	16dd'/JJ	.	.
8cL 8A 8F 8E-\	8cc'\L	.	.
8cJ 8A 8F 8E-\	8ee-'\J	.	.
=54	=54	=54	=54
*	*^	*	*
8dL 8B- 8F 8D\	8dd'/L	4r	.	.
8dJ 8B- 8F 8D\	8b-'/J	.	.	.
8BB-L 8BBB-\	8.dd^/L	8r	.	.
8B-J 8F 8D\	.	8f 8d\	.	.
.	16b-/Jk	.	.	.
*	*v	*v	*	*
!!LO:LB:g=original
=55	=55	=55	=55
8B-L 8F 8D\	(16f/LL	.	.
.	16d/	.	.
8B-J 8F 8D\	16f/	.	.
.	16b-/JJ)	.	.
8FF\L	8a/L	.	.
8cJ 8A 8F\	8ccJ 8e-/	.	.
=56	=56	=56	=56
8BB- 8BBB-/	8b-L 8d/	.	.
8dL 8B- 8F 8D\	8b-/J	.	.
8d 8B- 8F 8D\	8.ff^\L	.	.
8dJ 8B- 8F 8D\	.	.	.
.	16dd\Jk	.	.
=57	=57	=57	=57
8dL 8B- 8F 8D\	16b-'/LL	.	.
.	16f'/	.	.
8dJ 8B- 8F 8D\	16b-'/	.	.
.	16dd'/JJ	.	.
8cL 8A 8F 8E-\	8cc'\L	.	.
8cJ 8A 8F 8E-\	8ee-'\J	.	.
=58	=58	=58	=58
*	*^	*	*
8dL 8B- 8F 8D\	8dd'\L	8ryy	.	.
8dJ 8B- 8F 8D\	8b-'\J	8ryy	.	.
8BB-L 8BBB-\	8.dd^/L	8r	.	.
8B-J 8F 8D\	.	8f 8d\	.	.
.	16b-/Jk	.	.	.
*	*v	*v	*	*
=59	=59	=59	=59
8B-L 8F 8D\	16f/LL	.	.
.	16d/	.	.
8B-J 8F 8D\	16f/	.	.
.	16b-/JJ	.	.
8FF\L	8a/L	.	.
8cJ 8A 8F\	8ccJ 8e-/	.	.
=60	=60	=60	=60
8BB-\L	8b-L 8d/	.	.
8dJ 8B- 8F'\	8b-/J	.	.
8B-L 8F 8D'\	8.b-/L	.	.
8B-J 8F 8BB-'\	.	.	.
.	16a/Jk	.	.
=61	=61	=61	=61
*^	*	*	*
!	!	!	!	!LO:HP:b:t=cre-scen-do:ext2=ud
8E-^^\L	4E-/	8g/L	.	<
8B-J 8G'\	.	8g/J	.	.
8cL 8G 8En'\	8ryy	8.cc\L	.	.
8cJ 8G 8C'\	8ryy	.	.	.
.	.	16b-\Jk	.	.
!!LO:LB:g=original
=62	=62	=62	=62	=62
8F^^\L	4F/	8a/L	.	.
8cJ 8A'\	.	8a/J	.	.
8dL 8A 8F#X'\	8ryy	8.dd\L	.	.
8dJ 8A 8D'\	8ryy	.	.	.
.	.	16cc\Jk	.	.
=63	=63	=63	=63	=63
8G^^\L	4G/	16b-\LL	.	.
.	.	16cc\	.	.
8dJ 8B-\	.	16dd\	.	.
.	.	16ee-\JJ	.	.
8cL 8A'\	8ryy	8ff\L	.	.
8cJ 8A-X'\	8ryy	8ff#X\J	.	.
*v	*v	*	*	*
=64	=64	=64	=64
*	*^	*	*^
4d 4G;<\	(8.gg;/L	4bn 4g\	.	.	f
.	16ff/Jk	.	.	.	.
8AA\L	16ee-/LL	8cc\	.	.	.
.	16dd/	.	.	.	.
8e-J 8c\	16cc/	8r	.	.	.
!	!LO:SIC:v:o=16b/JJ)	!	!	!	!
.	16b-/JJ)	.	.	[	.
*	*v	*v	*	*v	*v
=65	=65	=65	=65
*^	*	*	*
8D/L	4D\	(8aL 8f#X/	.	.
8dJ 8A 8F#X/	.	8dd/J	.	.
8dL 8G'\	8ryy	8b-L 8g/)	.	.
8dJ 8Fn'\	8ryy	8bnJ 8g'/	.	.
*v	*v	*	*	*
=66	=66	=66	=66
*M3/4	*M3/4	*	*
*	*^	*	*
8cL 8E-\	8ccL 8g'/	8ryy	.	.
8BnJ 8D\	8ccJ 8g'/	8ryy	.	.
4c 4G 4C;\	8.ff;/L	4g\	.	.
.	32ee-/LL	.	.	.
.	32dd/JJJ	.	.	.
4A 4F\	8.cc/L	4e-\	.	.
.	16f/Jk	.	.	.
*	*v	*v	*	*
=67:|!	=67:|!	=67:|!	=67:|!
*>C	*>C	*	*
*M2/4	*M2/4	*	*
8B- 8BB-\	8b- 8d/	.	f
8e-L 8E-^^\	8ggL 8ee- 8b- 8g^^\	.	.
8B- 8BB-^^\	8gg 8dd 8g^^\	.	.
8cJ 8C^^\	8ggJ 8ee- 8cc 8g^^\	.	.
=68	=68	=68	=68
!LO:TX:t=P:problem:spiccato u dołu	!	!	!
(>4G 4GG^^</	4bb- 4gg 4dd 4b-^^\	.	.
8AL 8AA/)	(16aaLL 16ff\	.	.
.	16gg 16ee-\	.	.
8FJ 8FF'/	16ff 16dd\	.	.
.	16ee-JJ 16cc\	.	.
!!LO:LB:g=original
=69	=69	=69	=69
8B- 8BB-\	8ddL 8b-\)	.	.
8A-XL 8BB- 8AA-X'/	16b-'\L	.	.
.	16b-'\JJ	.	.
8G 8BB- 8GG'/	8ee-L 8b-'\	.	.
8E-J 8BB- 8EE-'/	8ggJ 8ee- 8b-'\	.	.
=70	=70	=70	=70
8FF\L	8ffL 8dd'\	.	.
8dJ 8B- 8F\	16ddL 16b-'\	.	.
.	16ddJJ 16b-'\	.	.
8FF\L	8ccL 8a'\	.	.
8e-J 8c 8F\	8ffJ 8cc 8a'\	.	.
=71	=71	=71	=71
8d 8B-'\	8dd' 8b-\	.	.
8e-L 8E-^^\	8ggL 8ee- 8b- 8g^^\	.	.
8B- 8BB-^^\	8gg 8dd 8g^^\	.	.
8cJ 8C^^\	8ggJ 8ee- 8cc 8g^^\	.	.
=72	=72	=72	=72
!LO:TX:t=P:problem:spiccato u dołu	!	!	!
(4G (4GG^^</	4ddd^^ 4bb- 4gg 4dd\	.	.
8AL) 8AA/)	16ccc 16aaLL\	.	.
.	16bb- 16gg\	.	.
8FJ 8FF'/	16aa 16ff\	.	.
.	16gg 16ee-JJ\	.	.
=73	=73	=73	=73
8B- 8BB-\	8ff 8dd\	.	.
16B-LL 16F\	8r	.	.
16d\JJ	.	.	.
8B-L 8F\	8.b-/L	.	.
8B-J 8F\	.	.	.
.	16d/Jk	.	.
=74	=74	=74	=74
8F\	8f/	.	.
8FL 8FF/	8b-L 8f 8d/	.	.
8D 8DD/	8dd 8b- 8f/	.	.
8BB-J 8BBB-/	8ffJ 8dd 8f/	.	.
=75	=75	=75	=75
*ped	*	*	*
4.FF 4.FFF/	4.aa 4.ee- 4.cc 4.a;\	.	.
*Xped	*	*	*
8e- 8c 8F\	8ff 8cc 8a\	.	.
=76	=76	=76	=76
*	*^	*	*
4c 4F\	4.ee-;/	4a 4e-\	.	.
4c 4F\	.	4e-\	.	.
.	8a/	.	.	.
*	*v	*v	*	*
=77	=77	=77	=77
*ped	*	*	*
!!LO:TX:B:a:t=Allegro.
8BB- 8BBB-/	8b- 8d/	.	.
8B-L 8F 8D 8BB-'\	8r	.	.
8B- 8F 8D 8BB-'\	8.fffL 8.bb- 8.ff^^\	.	ff
8B-J 8F 8D 8BB-'\	.	.	.
.	16ddd\Jk	.	.
!!LO:LB:g=original
=78	=78	=78	=78
8B-L 8F 8D 8BB-'\	16bb-\LL	.	.
.	16ff\	.	.
8B-J 8F 8D 8BB-'\	16bb-\	.	.
.	16ddd\JJ	.	.
*Xped	*	*	*
8AL 8F 8E- 8BB-'\	8cccL 8ff'\	.	.
8AJ 8F 8C 8BB-'\	8eee-J 8ff'\	.	.
=79	=79	=79	=79
8B-L 8F 8D 8BB-\	8dddL 8ff'\	.	.
8B- 8F 8D 8BB-\	8bb-J 8dd'\	.	.
8B- 8F 8D 8BB-\	8.dddL 8.ff 8.dd^^\	.	.
8B-J 8F 8D 8BB-\	.	.	.
.	16bb-\Jk	.	.
=80	=80	=80	=80
8B-L 8F 8D 8BB-\	16ff\LL	.	.
.	16dd\	.	.
8B-J 8F 8D 8BB-\	16ff\	.	.
.	16bb-\JJ	.	.
8AL 8F 8E- 8BB-\	8aaL 8ee-\	.	.
8AJ 8F 8E- 8BB-\	8cccJ 8ee-\	.	.
=81	=81	=81	=81
8BB- 8BBB-/	4bb- 4ff\	.	.
8B-L 8F 8D 8BB-\	.	.	.
8B- 8F 8D 8BB-\	8.fffL 8.ff\	.	.
8B-J 8F 8D 8BB-\	.	.	.
.	16ddd\Jk	.	.
=82	=82	=82	=82
8B-L 8F 8D 8BB-\	16bb-\LL	.	.
.	16ff\	.	.
8B-J 8F 8D 8BB-\	16bb-\	.	.
.	16ddd\JJ	.	.
8AL 8F 8E- 8BB-\	8cccL 8ff'\	.	.
8AJ 8F 8C 8BB-\	8eee-J 8ff'\	.	.
=83	=83	=83	=83
8B- 8F 8D 8BB-\	8ddd 8ff\	.	.
8FL 8FF'/	(16ff\LL	.	.
.	16dd\JJ	.	.
8D 8DD'/	16bb-\LL	.	.
.	16ff\	.	.
8BB-J 8BBB-'/	16ddd\	.	.
.	16bb-\JJ	.	.
=84	=84	=84	=84
8FF 8FFF/	8fff\)	.	.
8r	8r	.	.
8F 8FF/	8aa 8ff 8ee- 8cc\	.	.
8r	8r	.	.
=85	=85	=85	=85
8BB- 8FF 8BBB-/	8bb- 8ff 8dd 8b-\	.	.
8r	8r	.	.
4r	4r	.	.
==	==	==	==
*-	*-	*-	*-
!!!system-decoration: {(p1)}
!!!RDF**kern: > = above
!!!RDF**kern: < = below
!!!ENC: Berenika Jozajtis
!!!END: 2022-08-22
!!!ENC: Kamil Watkowski
!!!END: 2022-09-28
